germany/municipalities/07143260.svg

<?xml version="1.0" encoding="UTF-8" standalone="no"?>
<!-- Created with Inkscape (http://www.inkscape.org/) -->

<svg
   xmlns:dc="http://purl.org/dc/elements/1.1/"
   xmlns:cc="http://creativecommons.org/ns#"
   xmlns:rdf="http://www.w3.org/1999/02/22-rdf-syntax-ns#"
   xmlns:svg="http://www.w3.org/2000/svg"
   xmlns="http://www.w3.org/2000/svg"
   xmlns:sodipodi="http://sodipodi.sourceforge.net/DTD/sodipodi-0.dtd"
   xmlns:inkscape="http://www.inkscape.org/namespaces/inkscape"
   width="137.09789mm"
   height="158.71788mm"
   viewBox="0 0 137.09789 158.71788"
   version="1.1"
   id="svg1660"
   inkscape:version="0.92.5 (2060ec1f9f, 2020-04-08)"
   sodipodi:docname="DEU Luckenbach COA.svg">
  <defs
     id="defs1654">
    <inkscape:path-effect
       effect="spiro"
       id="path-effect1313"
       is_visible="true" />
  </defs>
  <sodipodi:namedview
     id="base"
     pagecolor="#ffffff"
     bordercolor="#666666"
     borderopacity="1.0"
     inkscape:pageopacity="0.0"
     inkscape:pageshadow="2"
     inkscape:zoom="1.3219342"
     inkscape:cx="259.08262"
     inkscape:cy="299.93932"
     inkscape:document-units="mm"
     inkscape:current-layer="layer1"
     showgrid="false"
     inkscape:window-width="1920"
     inkscape:window-height="1046"
     inkscape:window-x="-11"
     inkscape:window-y="-11"
     inkscape:window-maximized="1"
     inkscape:snap-nodes="false"
     fit-margin-top="0"
     fit-margin-left="0"
     fit-margin-right="0"
     fit-margin-bottom="0"
     inkscape:snap-midpoints="true"
     inkscape:snap-smooth-nodes="true"
     inkscape:object-paths="true" />
  <metadata
     id="metadata1657">
    <rdf:RDF>
      <cc:Work
         rdf:about="">
        <dc:format>image/svg+xml</dc:format>
        <dc:type
           rdf:resource="http://purl.org/dc/dcmitype/StillImage" />
        <dc:title />
      </cc:Work>
    </rdf:RDF>
  </metadata>
  <g
     inkscape:label="Ebene 1"
     inkscape:groupmode="layer"
     id="layer1"
     transform="translate(-19.678837,-128.8143)">
    <path
       style="fill:#ff0000;fill-opacity:1;fill-rule:evenodd;stroke:none;stroke-width:2.11666656;stroke-linecap:round;stroke-linejoin:round;stroke-miterlimit:4;stroke-dasharray:none;stroke-opacity:1"
       inkscape:connector-curvature="0"
       d="m 155.71839,129.87262 -0.30857,89.28118 c -1.50233,37.55542 -31.18511,67.29899 -67.182037,67.32004 C 52.26324,286.42774 22.56934,256.67348 21.04574,219.1538 l -0.30857,-89.28118 h 67.488994 z"
       id="path10563-0-6-2-9-4"
       sodipodi:nodetypes="ccccccc" />
    <path
       style="opacity:1;fill:#ffd700;fill-opacity:1;fill-rule:evenodd;stroke:#000900;stroke-width:4.00000005;stroke-linecap:round;stroke-linejoin:round;stroke-miterlimit:4;stroke-dasharray:none;stroke-opacity:1;paint-order:normal"
       d="M 36.101562 126.80859 A 97.802476 97.125634 0 0 0 35.917969 130.46289 A 97.802476 97.125634 0 0 0 133.7207 227.58789 A 97.802476 97.125634 0 0 0 231.52344 130.46289 A 97.802476 97.125634 0 0 0 231.39258 126.80859 L 149.66211 126.80859 A 16.381983 16.268615 0 0 1 150.10156 130.46289 A 16.381983 16.268615 0 0 1 149.30859 135.4375 L 177.98242 135.4375 L 177.98242 173.59766 L 89.458984 173.59766 L 89.458984 135.4375 L 118.14258 135.4375 A 16.381983 16.268615 0 0 1 117.33789 130.46289 A 16.381983 16.268615 0 0 1 117.77344 126.80859 L 36.101562 126.80859 z "
       transform="matrix(0.26458333,0,0,0.26458333,19.678837,128.8143)"
       id="path1565-2-1-6" />
    <path
       style="opacity:1;fill:#ffd700;fill-opacity:1;fill-rule:evenodd;stroke:#000000;stroke-width:3.99999976;stroke-linecap:round;stroke-linejoin:round;stroke-miterlimit:4;stroke-dasharray:none;stroke-opacity:1;paint-order:normal"
       d="M 132.44922 39.357422 C 128.58433 39.357422 125.47266 42.469077 125.47266 46.333984 L 125.47266 121.44727 L 72.359375 68.333984 C 69.626474 65.601084 65.227038 65.601084 62.494141 68.333984 L 60.695312 70.132812 C 57.962412 72.865713 57.962412 77.265146 60.695312 79.998047 L 104.40039 123.70312 L 113.80859 133.11133 L 116.13477 135.4375 L 151.30664 135.4375 L 153.63281 133.11133 L 163.04102 123.70312 L 206.74609 79.998047 C 209.47899 77.265146 209.47899 72.865713 206.74609 70.132812 L 204.94727 68.333984 C 202.21436 65.601084 197.81493 65.601046 195.08203 68.333984 L 141.96875 121.44727 L 141.96875 46.333984 C 141.96875 42.469077 138.85709 39.357422 134.99219 39.357422 L 132.44922 39.357422 z "
       transform="matrix(0.26458333,0,0,0.26458333,19.678837,128.8143)"
       id="rect1467-7" />
    <path
       style="fill:#0033ff;fill-opacity:1;stroke:none;stroke-width:0.99999994px;stroke-linecap:butt;stroke-linejoin:miter;stroke-opacity:1"
       d="M 514.16602 4 L 35.310547 455.91406 C 78.38695 539.26364 162.77958 595.75546 259.08203 595.87891 C 395.13341 595.79938 507.31995 483.38315 512.99805 341.44141 L 514.16602 4 z "
       transform="matrix(0.26458333,0,0,0.26458333,19.678837,128.8143)"
       id="path2541" />
    <path
       sodipodi:type="star"
       style="opacity:1;fill:#ffffff;fill-opacity:1;fill-rule:evenodd;stroke:#000000;stroke-width:1.18310022;stroke-linecap:round;stroke-linejoin:round;stroke-miterlimit:4;stroke-dasharray:none;stroke-opacity:1;paint-order:normal"
       id="path2570-0"
       sodipodi:sides="5"
       sodipodi:cx="-42.68528"
       sodipodi:cy="241.08685"
       sodipodi:r1="17.375103"
       sodipodi:r2="14.056755"
       sodipodi:arg1="0"
       sodipodi:arg2="0.62831853"
       inkscape:flatsided="true"
       inkscape:rounded="0.01"
       inkscape:randomized="0"
       d="m -25.310177,241.08685 c 0,0.20426 -11.811641,16.46159 -12.005901,16.52471 -0.194259,0.0631 -19.305896,-6.14663 -19.425955,-6.31188 -0.120059,-0.16524 -0.120059,-20.26041 0,-20.42566 0.120059,-0.16524 19.231696,-6.37499 19.425955,-6.31187 0.19426,0.0631 12.005901,16.32045 12.005901,16.5247 z"
       inkscape:transform-center-x="-1.0858248"
       transform="matrix(1.1084421,0.14723522,-0.14723522,1.1084421,201.21211,-19.313232)"
       inkscape:transform-center-y="0.7897022" />
    <rect
       style="opacity:1;fill:#ffffff;fill-opacity:1;fill-rule:evenodd;stroke:#000000;stroke-width:1.32291663;stroke-linecap:round;stroke-linejoin:round;stroke-miterlimit:4;stroke-dasharray:none;stroke-opacity:1;paint-order:normal"
       id="rect2615-4"
       width="19.617088"
       height="19.617088"
       x="66.283714"
       y="239.32256"
       ry="0.22440693" />
    <rect
       style="opacity:1;fill:#ffffff;fill-opacity:1;fill-rule:evenodd;stroke:#000000;stroke-width:1.32291663;stroke-linecap:round;stroke-linejoin:round;stroke-miterlimit:4;stroke-dasharray:none;stroke-opacity:1;paint-order:normal"
       id="rect2615-8-6"
       width="19.617088"
       height="19.617088"
       x="56.475174"
       y="249.1311"
       ry="0.22440693" />
    <path
       style="fill:#ffffff;stroke:#000000;stroke-width:1.32291663;stroke-linecap:round;stroke-linejoin:round;stroke-miterlimit:4;stroke-dasharray:none;stroke-opacity:1"
       d="m 56.47517,249.13111 9.808545,-9.80855 h 19.617089 l -9.808541,9.80855 z"
       id="path2632-1"
       inkscape:connector-curvature="0" />
    <path
       style="fill:#ffffff;stroke:#000000;stroke-width:1.32291663;stroke-linecap:round;stroke-linejoin:round;stroke-miterlimit:4;stroke-dasharray:none;stroke-opacity:1"
       d="m 76.092263,268.7482 v -19.61709 l 9.808541,-9.80855 v 19.61709 z"
       id="path2634-2"
       inkscape:connector-curvature="0" />
    <rect
       style="opacity:1;fill:#ffffff;fill-opacity:1;fill-rule:evenodd;stroke:#000000;stroke-width:1.32291663;stroke-linecap:round;stroke-linejoin:round;stroke-miterlimit:4;stroke-dasharray:none;stroke-opacity:1;paint-order:normal"
       id="rect2615-1-3"
       width="19.617088"
       height="19.617088"
       x="126.20763"
       y="181.75772"
       ry="0.22440693" />
    <rect
       style="opacity:1;fill:#ffffff;fill-opacity:1;fill-rule:evenodd;stroke:#000000;stroke-width:1.32291663;stroke-linecap:round;stroke-linejoin:round;stroke-miterlimit:4;stroke-dasharray:none;stroke-opacity:1;paint-order:normal"
       id="rect2615-8-8-7"
       width="19.617088"
       height="19.617088"
       x="116.39909"
       y="191.56627"
       ry="0.22440693" />
    <path
       style="fill:#ffffff;stroke:#000000;stroke-width:1.32291663;stroke-linecap:round;stroke-linejoin:round;stroke-miterlimit:4;stroke-dasharray:none;stroke-opacity:1"
       d="m 116.39908,191.56627 9.80854,-9.80855 h 19.61709 l -9.80854,9.80855 z"
       id="path2632-0-5"
       inkscape:connector-curvature="0" />
    <path
       style="fill:#ffffff;stroke:#000000;stroke-width:1.32291663;stroke-linecap:round;stroke-linejoin:round;stroke-miterlimit:4;stroke-dasharray:none;stroke-opacity:1"
       d="m 136.01617,211.18336 v -19.61709 l 9.80854,-9.80855 v 19.61709 z"
       id="path2634-5-1"
       inkscape:connector-curvature="0" />
    <path
       inkscape:connector-curvature="0"
       style="fill:#ffffff;stroke:#000000;stroke-width:1.32291667;stroke-linecap:round;stroke-linejoin:round;stroke-miterlimit:4;stroke-dasharray:none;stroke-opacity:1"
       d="m 140.48731,129.87263 c -4.77554,6.25254 -9.33527,12.69741 -15.06419,18.06504 -9.28168,8.69632 -21.21805,14.16828 -30.451375,22.91592 -9.233329,8.74763 -15.341452,20.37111 -24.52615,29.16979 -9.183889,8.79791 -21.026946,14.37618 -30.451372,22.91592 -5.655583,5.12468 -10.303238,11.18887 -14.947924,17.26819 2.639348,7.55126 6.479135,14.49514 11.27838,20.57911 5.95199,-7.6092 11.490196,-15.57868 18.634004,-22.05188 9.424427,-8.53975 21.267483,-14.11801 30.451372,-22.91592 9.184698,-8.79868 15.292825,-20.42216 24.526155,-29.1698 9.23333,-8.74763 21.16969,-14.21959 30.45137,-22.91591 5.81431,-5.44763 10.42351,-12.00553 15.2771,-18.34513 l 0.0537,-15.51533 z"
       id="path1311-1" />
    <path
       style="fill:none;fill-rule:evenodd;stroke:#000000;stroke-width:2.11666656;stroke-linecap:round;stroke-linejoin:round;stroke-miterlimit:4;stroke-dasharray:none;stroke-opacity:1"
       inkscape:connector-curvature="0"
       d="m 155.71839,129.87263 -0.30857,89.28118 C 153.90749,256.70923 124.22471,286.4528 88.227783,286.47384 52.26324,286.42774 22.56934,256.67349 21.04574,219.15381 l -0.30857,-89.28118 h 67.488994 z"
       id="path10563-0-6-2-9"
       sodipodi:nodetypes="ccccccc" />
    <path
       style="opacity:1;fill:#ffd700;fill-opacity:1;fill-rule:evenodd;stroke:#000000;stroke-width:3.99999976;stroke-linecap:round;stroke-linejoin:round;stroke-miterlimit:4;stroke-dasharray:none;stroke-opacity:1;paint-order:normal"
       d="M 133.7207 48.458984 A 90.632931 90.632931 0 0 0 43.087891 139.0918 A 90.632931 90.632931 0 0 0 133.7207 229.72461 A 90.632931 90.632931 0 0 0 224.35352 139.0918 A 90.632931 90.632931 0 0 0 133.7207 48.458984 z M 133.7207 65.017578 A 74.590636 74.074444 0 0 1 208.31055 139.0918 A 74.590636 74.074444 0 0 1 133.7207 213.16602 A 74.590636 74.074444 0 0 1 59.128906 139.0918 A 74.590636 74.074444 0 0 1 133.7207 65.017578 z "
       transform="matrix(0.26458333,0,0,0.26458333,19.678837,128.8143)"
       id="path1449-2" />
    <path
       style="opacity:1;fill:#ffd700;fill-opacity:1;fill-rule:evenodd;stroke:#000000;stroke-width:4.00000005;stroke-linecap:round;stroke-linejoin:round;stroke-miterlimit:4;stroke-dasharray:none;stroke-opacity:1;paint-order:normal"
       d="M 133.7207 122.82227 A 16.381983 16.268615 0 0 0 117.33789 139.0918 L 150.10156 139.0918 A 16.381983 16.268615 0 0 0 133.7207 122.82227 z "
       transform="matrix(0.26458333,0,0,0.26458333,19.678837,128.8143)"
       id="path1565-3-8" />
    <path
       style="opacity:1;fill:#ffd700;fill-opacity:1;fill-rule:evenodd;stroke:#000900;stroke-width:4.00000005;stroke-linecap:round;stroke-linejoin:round;stroke-miterlimit:4;stroke-dasharray:none;stroke-opacity:1;paint-order:normal"
       d="M 36.101562 135.4375 A 97.802476 97.125635 0 0 0 35.917969 139.0918 A 97.802476 97.125635 0 0 0 133.7207 236.2168 A 97.802476 97.125635 0 0 0 231.52344 139.0918 A 97.802476 97.125635 0 0 0 231.39258 135.4375 L 149.66211 135.4375 A 16.381983 16.268615 0 0 1 150.10156 139.0918 A 16.381983 16.268615 0 0 1 133.7207 155.36133 A 16.381983 16.268615 0 0 1 117.33789 139.0918 A 16.381983 16.268615 0 0 1 117.77344 135.4375 L 36.101562 135.4375 z "
       transform="matrix(0.26458333,0,0,0.26458333,19.678837,128.8143)"
       id="path1565-2-1" />
    <ellipse
       style="opacity:1;fill:none;fill-opacity:1;fill-rule:evenodd;stroke:#000000;stroke-width:1.05833333;stroke-linecap:round;stroke-linejoin:round;stroke-miterlimit:4;stroke-dasharray:none;stroke-opacity:1;paint-order:normal"
       id="path1565-3"
       cx="55.058937"
       cy="165.61566"
       rx="4.3343997"
       ry="4.3044038" />
    <path
       style="fill:none;stroke:#000000;stroke-width:1.05833328;stroke-linecap:round;stroke-linejoin:round;stroke-miterlimit:4;stroke-dasharray:none;stroke-opacity:1"
       d="m 35.44105,173.09268 15.37605,-4.4046"
       id="path1753-3"
       inkscape:connector-curvature="0" />
    <path
       style="fill:none;stroke:#000000;stroke-width:1.05833328;stroke-linecap:round;stroke-linejoin:round;stroke-miterlimit:4;stroke-dasharray:none;stroke-opacity:1"
       d="m 40.00581,179.65954 10.73121,-6.72703"
       id="path1755-7"
       inkscape:connector-curvature="0" />
    <path
       style="fill:none;stroke:#000000;stroke-width:1.05833328;stroke-linecap:round;stroke-linejoin:round;stroke-miterlimit:4;stroke-dasharray:none;stroke-opacity:1"
       d="m 39.68548,165.48474 9.2897,2.08217"
       id="path1757-7"
       inkscape:connector-curvature="0" />
    <path
       style="fill:none;stroke:#000000;stroke-width:1.05833328;stroke-linecap:round;stroke-linejoin:round;stroke-miterlimit:4;stroke-dasharray:none;stroke-opacity:1"
       d="m 46.57267,185.82597 7.12744,-12.89346 v 0"
       id="path1759-2"
       inkscape:connector-curvature="0"
       sodipodi:nodetypes="ccc" />
    <path
       style="fill:none;stroke:#000000;stroke-width:1.05833328;stroke-linecap:round;stroke-linejoin:round;stroke-miterlimit:4;stroke-dasharray:none;stroke-opacity:1"
       d="m 54.18061,188.22848 2.32243,-13.21379"
       id="path1761-6"
       inkscape:connector-curvature="0" />
    <path
       style="fill:none;stroke:#000000;stroke-width:1.05833328;stroke-linecap:round;stroke-linejoin:round;stroke-miterlimit:4;stroke-dasharray:none;stroke-opacity:1"
       d="m 59.386049,170.12958 3.844014,16.09681"
       id="path1763-0"
       inkscape:connector-curvature="0" />
    <path
       style="fill:none;stroke:#000000;stroke-width:1.05833328;stroke-linecap:round;stroke-linejoin:round;stroke-miterlimit:4;stroke-dasharray:none;stroke-opacity:1"
       d="m 61.788558,168.608 8.568946,12.09262"
       id="path1765-1"
       inkscape:connector-curvature="0" />
    <path
       style="fill:none;stroke:#000000;stroke-width:1.05833328;stroke-linecap:round;stroke-linejoin:round;stroke-miterlimit:4;stroke-dasharray:none;stroke-opacity:1"
       d="m 65.712654,167.48682 9.850287,6.40669"
       id="path1767-5"
       inkscape:connector-curvature="0" />
    <rect
       style="opacity:1;fill:#ffd700;fill-opacity:1;fill-rule:evenodd;stroke:#000000;stroke-width:1.05833328;stroke-linecap:round;stroke-linejoin:round;stroke-miterlimit:4;stroke-dasharray:none;stroke-opacity:1;paint-order:normal"
       id="rect881"
       width="2.464021"
       height="3.0655084"
       x="53.826927"
       y="169.98851" />
  </g>
</svg>

<svg xmlns="http://www.w3.org/2000/svg" width="518.165" height="599.879" viewBox="0 0 137.098 158.718"><g transform="translate(-19.679 -128.814)"><path style="fill:red;fill-opacity:1;fill-rule:evenodd;stroke:none;stroke-width:2.11666656;stroke-linecap:round;stroke-linejoin:round;stroke-miterlimit:4;stroke-dasharray:none;stroke-opacity:1" d="m155.718 129.873-.308 89.28c-1.503 37.556-31.185 67.3-67.182 67.32-35.965-.045-65.659-29.8-67.182-67.32l-.309-89.28h67.49z"/><path style="opacity:1;fill:gold;fill-opacity:1;fill-rule:evenodd;stroke:#000900;stroke-width:4.00000005;stroke-linecap:round;stroke-linejoin:round;stroke-miterlimit:4;stroke-dasharray:none;stroke-opacity:1;paint-order:normal" d="M36.102 126.809a97.802 97.126 0 0 0-.184 3.654 97.802 97.126 0 0 0 97.803 97.125 97.802 97.126 0 0 0 97.802-97.125 97.802 97.126 0 0 0-.13-3.654h-81.73a16.382 16.269 0 0 1 .439 3.654 16.382 16.269 0 0 1-.793 4.975h28.673v38.16H89.46v-38.16h28.684a16.382 16.269 0 0 1-.805-4.975 16.382 16.269 0 0 1 .435-3.654H36.102z" transform="matrix(.26458 0 0 .26458 19.679 128.814)"/><path style="opacity:1;fill:gold;fill-opacity:1;fill-rule:evenodd;stroke:#000;stroke-width:3.99999976;stroke-linecap:round;stroke-linejoin:round;stroke-miterlimit:4;stroke-dasharray:none;stroke-opacity:1;paint-order:normal" d="M132.45 39.357a6.961 6.961 0 0 0-6.977 6.977v75.113L72.359 68.334a6.96 6.96 0 0 0-9.865 0l-1.799 1.799a6.96 6.96 0 0 0 0 9.865l43.705 43.705 9.409 9.408 2.326 2.327h35.172l2.326-2.327 9.408-9.408 43.705-43.705a6.96 6.96 0 0 0 0-9.865l-1.799-1.799a6.96 6.96 0 0 0-9.865 0l-53.113 53.113V46.334a6.961 6.961 0 0 0-6.977-6.977h-2.543z" transform="matrix(.26458 0 0 .26458 19.679 128.814)"/><path style="fill:#03f;fill-opacity:1;stroke:none;stroke-width:.99999994px;stroke-linecap:butt;stroke-linejoin:miter;stroke-opacity:1" d="M514.166 4 35.311 455.914c43.076 83.35 127.469 139.841 223.771 139.965 136.051-.08 248.238-112.496 253.916-254.438L514.166 4z" transform="matrix(.26458 0 0 .26458 19.679 128.814)"/><path style="opacity:1;fill:#fff;fill-opacity:1;fill-rule:evenodd;stroke:#000;stroke-width:1.18310022;stroke-linecap:round;stroke-linejoin:round;stroke-miterlimit:4;stroke-dasharray:none;stroke-opacity:1;paint-order:normal" d="M-25.31 241.087c0 .204-11.812 16.461-12.006 16.525-.194.063-19.306-6.147-19.426-6.312-.12-.166-.12-20.26 0-20.426.12-.165 19.232-6.375 19.426-6.312.194.063 12.006 16.32 12.006 16.525z" transform="rotate(7.567 246.662 1511.794) scale(1.11818)"/><rect style="opacity:1;fill:#fff;fill-opacity:1;fill-rule:evenodd;stroke:#000;stroke-width:1.32291663;stroke-linecap:round;stroke-linejoin:round;stroke-miterlimit:4;stroke-dasharray:none;stroke-opacity:1;paint-order:normal" width="19.617" height="19.617" x="66.284" y="239.323" ry=".224"/><rect style="opacity:1;fill:#fff;fill-opacity:1;fill-rule:evenodd;stroke:#000;stroke-width:1.32291663;stroke-linecap:round;stroke-linejoin:round;stroke-miterlimit:4;stroke-dasharray:none;stroke-opacity:1;paint-order:normal" width="19.617" height="19.617" x="56.475" y="249.131" ry=".224"/><path style="fill:#fff;stroke:#000;stroke-width:1.32291663;stroke-linecap:round;stroke-linejoin:round;stroke-miterlimit:4;stroke-dasharray:none;stroke-opacity:1" d="m56.475 249.131 9.809-9.808H85.9l-9.809 9.808zM76.092 268.748v-19.617l9.809-9.808v19.617z"/><rect style="opacity:1;fill:#fff;fill-opacity:1;fill-rule:evenodd;stroke:#000;stroke-width:1.32291663;stroke-linecap:round;stroke-linejoin:round;stroke-miterlimit:4;stroke-dasharray:none;stroke-opacity:1;paint-order:normal" width="19.617" height="19.617" x="126.208" y="181.758" ry=".224"/><rect style="opacity:1;fill:#fff;fill-opacity:1;fill-rule:evenodd;stroke:#000;stroke-width:1.32291663;stroke-linecap:round;stroke-linejoin:round;stroke-miterlimit:4;stroke-dasharray:none;stroke-opacity:1;paint-order:normal" width="19.617" height="19.617" x="116.399" y="191.566" ry=".224"/><path style="fill:#fff;stroke:#000;stroke-width:1.32291663;stroke-linecap:round;stroke-linejoin:round;stroke-miterlimit:4;stroke-dasharray:none;stroke-opacity:1" d="m116.4 191.566 9.808-9.808h19.617l-9.809 9.808z"/><path style="fill:#fff;stroke:#000;stroke-width:1.32291663;stroke-linecap:round;stroke-linejoin:round;stroke-miterlimit:4;stroke-dasharray:none;stroke-opacity:1" d="M136.016 211.183v-19.617l9.809-9.808v19.617z"/><path style="fill:#fff;stroke:#000;stroke-width:1.32291667;stroke-linecap:round;stroke-linejoin:round;stroke-miterlimit:4;stroke-dasharray:none;stroke-opacity:1" d="M140.487 129.873c-4.775 6.252-9.335 12.697-15.064 18.065-9.282 8.696-21.218 14.168-30.451 22.916-9.234 8.747-15.342 20.37-24.526 29.17-9.184 8.797-21.027 14.376-30.452 22.915-5.655 5.125-10.303 11.19-14.948 17.268a71.105 71.105 0 0 0 11.279 20.58c5.952-7.61 11.49-15.58 18.634-22.052 9.424-8.54 21.267-14.118 30.451-22.916 9.185-8.799 15.293-20.422 24.526-29.17 9.234-8.748 21.17-14.22 30.452-22.916 5.814-5.448 10.423-12.005 15.277-18.345l.053-15.515z"/><path style="fill:none;fill-rule:evenodd;stroke:#000;stroke-width:2.11666656;stroke-linecap:round;stroke-linejoin:round;stroke-miterlimit:4;stroke-dasharray:none;stroke-opacity:1" d="m155.718 129.873-.308 89.28c-1.503 37.556-31.185 67.3-67.182 67.32-35.965-.045-65.659-29.8-67.182-67.32l-.309-89.28h67.49z"/><path style="opacity:1;fill:gold;fill-opacity:1;fill-rule:evenodd;stroke:#000;stroke-width:3.99999976;stroke-linecap:round;stroke-linejoin:round;stroke-miterlimit:4;stroke-dasharray:none;stroke-opacity:1;paint-order:normal" d="M133.72 48.459a90.633 90.633 0 0 0-90.632 90.633 90.633 90.633 0 0 0 90.633 90.633 90.633 90.633 0 0 0 90.633-90.633 90.633 90.633 0 0 0-90.633-90.633zm0 16.559a74.59 74.074 0 0 1 74.59 74.074 74.59 74.074 0 0 1-74.59 74.074 74.59 74.074 0 0 1-74.591-74.074 74.59 74.074 0 0 1 74.592-74.074z" transform="matrix(.26458 0 0 .26458 19.679 128.814)"/><path style="opacity:1;fill:gold;fill-opacity:1;fill-rule:evenodd;stroke:#000;stroke-width:4.00000005;stroke-linecap:round;stroke-linejoin:round;stroke-miterlimit:4;stroke-dasharray:none;stroke-opacity:1;paint-order:normal" d="M133.72 122.822a16.382 16.269 0 0 0-16.382 16.27h32.764a16.382 16.269 0 0 0-16.381-16.27z" transform="matrix(.26458 0 0 .26458 19.679 128.814)"/><path style="opacity:1;fill:gold;fill-opacity:1;fill-rule:evenodd;stroke:#000900;stroke-width:4.00000005;stroke-linecap:round;stroke-linejoin:round;stroke-miterlimit:4;stroke-dasharray:none;stroke-opacity:1;paint-order:normal" d="M36.102 135.438a97.802 97.126 0 0 0-.184 3.654 97.802 97.126 0 0 0 97.803 97.125 97.802 97.126 0 0 0 97.802-97.125 97.802 97.126 0 0 0-.13-3.655h-81.73a16.382 16.269 0 0 1 .439 3.655 16.382 16.269 0 0 1-16.381 16.27 16.382 16.269 0 0 1-16.383-16.27 16.382 16.269 0 0 1 .435-3.655H36.102z" transform="matrix(.26458 0 0 .26458 19.679 128.814)"/><ellipse style="opacity:1;fill:none;fill-opacity:1;fill-rule:evenodd;stroke:#000;stroke-width:1.05833333;stroke-linecap:round;stroke-linejoin:round;stroke-miterlimit:4;stroke-dasharray:none;stroke-opacity:1;paint-order:normal" cx="55.059" cy="165.616" rx="4.334" ry="4.304"/><path style="fill:none;stroke:#000;stroke-width:1.05833328;stroke-linecap:round;stroke-linejoin:round;stroke-miterlimit:4;stroke-dasharray:none;stroke-opacity:1" d="m35.441 173.093 15.376-4.405M40.006 179.66l10.731-6.727M39.685 165.485l9.29 2.082M46.573 185.826l7.127-12.893v0M54.18 188.228l2.323-13.213M59.386 170.13l3.844 16.096M61.789 168.608l8.569 12.093M65.713 167.487l9.85 6.407"/><path style="opacity:1;fill:gold;fill-opacity:1;fill-rule:evenodd;stroke:#000;stroke-width:1.05833328;stroke-linecap:round;stroke-linejoin:round;stroke-miterlimit:4;stroke-dasharray:none;stroke-opacity:1;paint-order:normal" d="M53.827 169.989h2.464v3.066h-2.464z"/></g></svg>
